!!!COM: Anon.
!!!OTL: O que tens, o/ Juliana
!!!OTL: Romanceiro Folclorico do Brasil
!!!CNT: Brasil
!!!OCY: Brasil
!!!ODT: <1971///
!!!PSR: Irmaos Vitale
!!!PSP: Sao Paulo, Brasil
!!!PDT: 1952///
!!!PPE: Rossini Tavares de Lima
!!!PPG: page 19
!! Romance: Juliana E D. Jorge
!! Place: Santos, Sao Paulo, Brasil
**kern
*clefG2
*k[b-e-a-]
*M3/4
*MM100
8g
8ee-
=
4cc
4g
8f
8d
=
4g
4d
8g
8g
=
4dd
4ff
8bn
8b
=
2cc
8cc
8cc
=
4a-
4f
8ee-
8dd
=
4cc
4g
8g
8a-
=
4g
8f
8f
8e-
8d
=
2c
==
*-
